X:1
T:Es stehet geschrieben
T:Es stehet geschrieben
T:Konrad HAGIUS (1550-1604)
C:Konrad HAGIUS
C:(1550-1604)
%%score [ 1 2 3 ]
L:1/8
Q:1/4=120
M:2/2
K:C
V:1 treble nm="Soprano" snm="S"
V:2 treble nm="Alto" snm="A"
V:3 treble-8 nm="Tenor" snm="T"
V:1
 A4 F2 E2 | D4 A4- | A2 B2 c4- | c2 B2 z2 c2 | A2 G2 F4 | E4 D2 A2 | B2 ^c2 d3 =c | B2 A4 ^G2 | %8
w: Es ste- het|ge- schrie-||* ben, es|ste- het ge-|schrie- ben, dasz|sechs _ o- *|* der sie-|
 A2 c2 c2 c2 | A4 G4 | z2 c2 c2 c2 | A4 G4 | z2 B2 c4- | c2 B2 c2 A2 | z2 G2 G3 F | E2 E2 F3 E | %16
w: ben nicht sol- len|har- ren,|nicht sol- len|har- ren|auf ei-|* nen Nar- ren,|auf ei- *|* nen Nar- *|
 DE F4 E2 | z2 D4 E2 | F2 G4 F2- | FE/D/ E2 F2 A2- | AGFE F2 G2 | A2 G2 E4 |: F2 F4 E2 | %23
w: * * * ren,|son- dern|sol- len es-|* * * * sen, son-|* * * * * dern|sol- len es-|sen und des|
 D4 C2 c2- | c2 B2 A4 | G2 _B4 A2 | G4 F2 D2 |1 ^C2 D2 E4 :|2 E3 D ^C2 D2 || E2 F2 E4 | ^F8 |] %31
w: Nar- ren, und|_ des Nar-|ren, und des|Nar- ren ver-|ges- * *|ges- * * *||sen.|
V:2
 z8 | z4 D4 | C2 B,2 A,4 | E4 C4 | z2 G,2 A,2 D2- | D2 ^C2 D3 =C | B,2 A,2 z2 A,2 | B, D2 C B,4 | %8
w: |Es|ste- het ge-|schrie- ben,|dasz sechs o-|* der sie- *|* ben, dasz|sechs o- * sie-|
 A,8 | z2 F2 F2 E2 | D2 A,B, CDEC | D2 E2 z2 E2 | G3 F E2 A2- | A2 G2 A2 E2 | F2 E4 D2- | %15
w: ben|nicht sol- len|har- * * * * * *|* ren auf|ei- * * nen|_ Nar- ren, auf|ei- nen Nar-|
 D2 C2 D3 C | _B,2 A,2 G,4 | F,4 z4 | z2 D2 E2 F2 | G4 AGFE | FEDC D2 CB, | A,D D4 ^C2 |: D4 z4 | %23
w: ||ren,|son- dern sol-|len es- * * *|||sen,|
 z2 F4 E2 | CD E4 D2 | E2 z4 D2- | D2 C2 D2 F2 |1 E2 D4 ^C2 :|2 C3 D E2 F2 || ^C2 D3 C/B,/ C2 | %30
w: und des|Nar- * * *|ren, und|_ des Nar- ren|ver- ges- *|ver- * * ges-||
 D8 |] %31
w: sen.|
V:3
 z8 | z8 | z8 | z4 A4 | F2 E2 D4 | A4 D4 | z2 A2 G2 ^F2 | G2 A2 E4 | z4 z2 F2 | F2 F2 C4 | %10
w: |||Es|ste- het ge-|schrie- ben,|dasz sechs o-|der sie- ben|nicht|sol- len har-|
 DEFG A4 | z2 c2 c2 c2 | G4 ABcd | e4 z2 A2 | d2 c2 G4 | A4 z2 D2 | G2 F2 C4 | D4 z2 A2- | %18
w: ren, _ _ _ _|nicht sol- len|har- ren _ _ _|_ auf|ei- nen Nar-|ren, auf|ei- nen Nar-|ren, son-|
 A2 B2 c2 d2 | c4 F4 | z2 D4 E2 | F2 G2 A4 |: D2 d4 c2 | _B4 F2 A2- | A2 G2 F4 | E2 G4 F2 | %26
w: * dern sol- len|es- sen,|son- dern|sol- len es-|sen und des|Nar- ren, und|_ des Nar-|ren, und des|
 E4 D2 D2 |1 A8 :|2 A8- || A8 | D8 |] %31
w: Nar- ren ver-|ges-|ges-||sen.|

